X: 1
T:Bull-Dozer -- Reel
M:2/4
L:1/16
C:E. CHRISTIE.
R:reel
B:Ryan's Mammoth Collection
N:359
Z:Contributed by Ray Davies,  ray:davies99.freeserve.co.uk
K:D
v((3A,B,C)|\
"4"D2u"0"DvE F2FG | A2Bc d2de | fefb afdf | eafd "4"edBA |
D2DE F2FG | A2Bc d2de | fefb afdf | eage d2 :|
|:zv(d/e/|\
f)edf (ec)z vA | uBdcB (AF)z v(d/e/ | f)edf (ec)zve | ufa^gb a2zv(d/e/ |
f)edf (ec)z vA | uBdcB (AF)z uE | vD2uDvE FAdA | Bdc"4"e d2 :|
